!!!OTL: WO GEHST DU HIN DU STOLZE
!!!ARE: Europa, Mitteleuropa, Deutschland, Hessen, Darmstadt, Alsfeld
!!!SCT: E0696
!!!YEM: Copyright 1995, estate of Helmut Schaffrath.
**kern
*ICvox
*Ivox
*M6/8
*k[f#c#]
*D:
{8d
=1
4d
8f#
4a
8b
=2
4a
8dd
4f#}
{8a
=3
4a
8g
4e
8c#
=4
4.d
4r}
{8d
=5
4d
8f#
4a
8b
=6
4a
8dd
4f#}
{8a
=7
4a
8g
4e
8c#
=8
4.d
4r}
{8a
=9
4g#
8e
8e
8f#
8g#
=10
4a
8cc#
4cc#}
{8cc#
=11
4dd
8b
8ee
8dd
8b
=12
[4.a
4a]}
{8g
=13
4f#
8a
4a
8b
=14
4a
8dd
4f#}
{8a
=15
4b
8a
4g
8e
=16
4.d
4r}
==
!!!AGN: Liebes - Lied, Leid, Klage
!!!ONB: ESAC (Essen Associative Code) Database: ERK2
!!!AMT: compound duple
!!!AIN: vox
!!!EED: Helmut Schaffrath
!!!EEV: 1.0
*-
